remix/Map/compass-2-line.svg

<svg viewBox="0 0 24 24" fill="currentColor" xmlns="http://www.w3.org/2000/svg"><path d="M16.6248 3.13258L15.1247 4.63267C14.1648 4.22531 13.1088 4 12 4C7.58 4 4 7.58 4 12C4 16.42 7.58 20 12 20C16.42 20 20 16.42 20 12C20 10.8912 19.7747 9.83517 19.3673 8.87531L20.8674 7.37522C21.5908 8.75852 22 10.3318 22 12C22 17.52 17.52 22 12 22C6.48 22 2 17.52 2 12C2 6.48 6.48 2 12 2C13.6682 2 15.2415 2.40918 16.6248 3.13258ZM18.364 4.22183L19.7782 5.63604L12 13.4142L10.5858 12L18.364 4.22183Z"/></svg>

<svg viewBox="0 0 24 24" xmlns="http://www.w3.org/2000/svg"><path fill="none" d="M0 0h24v24H0Z"/><path d="M16.625 3.133l-1.5 1.5v-.001c-.99-.42-2.06-.64-3.125-.64 -4.42 0-8 3.58-8 8s3.58 8 8 8 8-3.58 8-8v0c0-1.08-.22-2.14-.64-3.125l1.5-1.5h0c.74 1.42 1.13 3.01 1.13 4.625 0 5.52-4.48 10-10 10s-10-4.48-10-10 4.48-10 10-10c1.66 0 3.24.41 4.625 1.133Zm1.73 1.08l1.41 1.41 -7.78 7.77 -1.42-1.42 7.77-7.78Z"/></svg>
